X:1
T:6. Vaardagen
T:6. Vaardagen
T:Symra
T:Chr. Haslerud
T:Ivar Aasen
C:Chr. Haslerud
Z:Ivar Aasen
%%score [ 1 2 3 4 ]
L:1/8
Q:1/4=114
M:4/4
K:F
V:1 treble nm="Soprano"
V:2 treble nm="Alto"
V:3 treble-8 nm="Tenor"
V:4 bass nm="Bass"
V:1
!p!"^Let" D z A z E z A z | D z A z E z A z |!mf! d ^c d e f e d f | e4 A2 z2 | %4
w: Upp av Krak- ken!|Upp av Krak- ken!|Su- mar- so- li skin i grö- ne|Bak- ken;|
!p! D z A z E z A z | D z A z E z A z |!mf! c B A G F3/2 E/ F3/2 G/ |!>(! G4 F2!>)! z2 | %8
w: Upp av Krak- ken!|Upp av Krak- ken!|Su- mar- so- li skin i grö- ne|Bak- ken;|
!f! c3/2 =B/ c3/2 d/ c2 f2 |!>(! e d!>)! c B A2 z2 |!f! G3/2 ^F/ G3/2 A/ B2 d2 | %11
w: Jor- di he- ver fen- get|Hel- gar - Plag- get paa.|Sko- gen stend i Lauv so|
!>(! d c!>)! c B A2 z2 |!pp! A2 A2 z4 | B2 B2 z4 |!mf! d d d ^c d B A G | (F4 E4) | D4 z2 |] %17
w: ly- ste- leg aa sjaa.|Li- vet|Li- vet|Vol- len tur- kar seg, og Ve- gen|slett- *|nar.|
V:2
!p! D z D z ^C z C z | D z D z E z ^C z |!mf! A E F G F G F F | A4 E2 z2 |!p! D z D z ^C z C z | %5
w: Upp av Krak- ken!|Upp av Krak- ken!|Su- mar- so- li skin i grö- ne|Bak- ken;|Upp av Krak- ken!|
 D z D z E z ^C z |!mf! =C E F E F3/2 C/ C3/2 F/ |!>(! E4 C2!>)! z2 |!f! F3/2 F/ F3/2 F/ F2 A2 | %9
w: Upp av Krak- ken!|Su- mar- so- li skin i grö- ne|Bak- ken;|Jor- di he- ver fen- get|
!>(! c B!>)! A G F2 z2 |!f! C3/2 C/ C3/2 C/ D2 F2 |!>(! E F!>)! E E F2 z2 |!pp! F2 F2 z4 | %13
w: Hel- gar - Plag- get paa.|Sko- gen stend i Lauv so|ly- ste- leg aa sjaa.|Li- vet|
 G2 G2 z4 |!mf! F F F E D E F D | (D4 ^C4) | A,4 z2 |] %17
w: Li- vet|Vol- len tur- kar seg, og Ve- gen|slett- *|nar.|
V:3
!p! F z A z A z A z | A z F z A z A z |!mf! A B A ^c d c A A | ^c4 c2 z2 |!p! F z A z A z A z | %5
w: Upp av Krak- ken!|Upp av Krak- ken!|Su- mar- so- li skin i grö- ne|Bak- ken;|Upp av Krak- ken!|
 A z F z A z A z |!mf! F G A B c3/2 B/ A3/2 c/ |!>(! B4 A2!>)! z2 |!f! c3/2 d/ c3/2 _B/ c2 c2 | %9
w: Upp av Krak- ken!|Su- mar- so- li skin i grö- ne|Bak- ken;|Jor- di he- ver fen- get|
!>(! d d!>)! e e c2 z2 |!f! G3/2 A/ G3/2 =F/ F2 B2 |!>(! B A!>)! c c c2 z2 |!pp! d2 d2 z4 | %13
w: Hel- gar - Plag- get paa.|Sko- gen stend i Lauv so|ly- ste- leg aa sjaa.|Li- vet|
 d2 d2 z4 |!mf! A A A G A ^c d B | (A4 G4) | F4 z2 |] %17
w: Li- vet|Vol- len tur- kar seg, og Ve- gen|slett- *|nar.|
V:4
!p! D, z F, z A, z G, z | F, z D, z ^C, z A,, z |!mf! F, G, F, E, D, E, F, D, | A,,4 A,,2 z2 | %4
w: Upp av Krak- ken!|Upp av Krak- ken!|Su- mar- so- li skin i grö- ne|Bak- ken;|
!p! D, z F, z A, z G, z | F, z D, z ^C, z A,, z |!mf! A,, =C, F, G, A,3/2 G,/ F,3/2 F,/ | %7
w: Upp av Krak- ken!|Upp av Krak- ken!|Su- mar- so- li skin i grö- ne|
!>(! C,4 F,2!>)! z2 |!f! A,3/2 ^G,/ A,3/2 _B,/ A,2 F,2 |!>(! B,, B,,!>)! C, C, F,2 z2 | %10
w: Bak- ken;|Jor- di he- ver fen- get|Hel- gar - Plag- get paa.|
!f! E,3/2 ^D,/ E,3/2 =F,/ D,2 B,,2 |!>(! C, C,!>)! C, C, F,2 z2 | z2 z2!pp! D, E, F, D, | %13
w: Sko- gen stend i Lauv so|ly- ste- leg aa sjaa.|Li- vet lett- nar|
 z2 z2 B, G, E, ^C, |!mf! D, D, D, E, F, G, F, G, | (A,4 A,,4) | D,4 z2 |] %17
w: Li- vet lett- nar|Vol- len tur- kar seg, og Ve- gen|slett- *|nar.|

